X:1
T:Title
%%score { ( 1 3 ) | ( 2 4 ) }
L:1/8
M:3/4
K:Bb
V:1 treble nm="Grand Piano"
V:3 treble 
V:2 bass 
V:4 bass 
V:1
 z2 z2[Q:1/4=124] [B,D][CE] | [DF]2 [DF]2 [DF]2 | [DF]2 [B,D]2 [CE]2 | [DF]2 [EG]2 [EA]2 | %4
 [DB]4 cB | A6- | A4 z2 | B6- | B4 z2 | [DF]2 [DF]2 [DF]2 | [DF]2 [B,D]2 [CE]2 | %11
 [DF]2 [EG]2 [EA]2 | [DB]4 cd | e6- | e4 z2 | B6- |[M:2/4] B4 |[M:1/4] [DB][FA] |[M:3/4] G2 G2 G2 | %19
 [GB]2 [FA]2 [EG]2 | [EG]2 [DF]2 [B,D]2 | [DF]4 AB | c2 c2 c2 | c2 B2 c2 | d2 [DB]2 [EG]2 | %25
 [DF]4 [B,D][CE] | [DF]2 [DF]2 [DF]2 | [DF]2 [FB]2 c2 | d2 B2 e2 |[M:2/4] d4 |[M:1/4] de | %31
[M:3/4] f6- | f4 z2 | d6- |[M:13/16] d/-d/-d/-d/-d-<d z/ z/ z/ z |[M:3/4] d4 BB | B2 c2 d2 | c6 | %38
[M:2/4] [DB]4 |] %39
V:2
 z2 z2 [B,,F,][B,,F,] | [B,,B,]2 [B,,B,]2 [B,,B,]2 | [B,,B,]2 [B,,F,]2 [B,,F,]2 | %3
 [B,,B,]2 [E,B,]2 [C,F,]2 | [B,,F,]4 z2 | z2 z2 [F,C][F,C] | [F,C]4 z2 | z2 z2 [B,,F,][B,,G,] | %8
 [B,,F,]4 [B,,F,B,][B,,F,] | [B,,B,]2 [B,,B,]2 [B,,B,]2 | [B,,B,]2 [B,,F,]2 [B,,F,]2 | %11
 [B,,B,]2 [E,B,]2 [C,F,]2 | [B,,F,]4 z2 | z2 z2 [F,A,][F,A,] | [F,A,]4 z2 | z2 z2 [B,,A,][B,,G,] | %16
[M:2/4] [B,,F,]4 |[M:1/4] [B,,B,][D,B,] |[M:3/4] [E,B,E]2 [E,B,E]2 [E,B,E]2 | %19
 [E,B,]2 [E,B,]2 [E,B,]2 | [B,,B,]2 [B,,B,]2 [B,,F,]2 | [B,,B,]4 [F,CE][F,B,E] | %22
 [F,A,E]2 [F,A,E]2 [F,A,E]2 | [F,A,E]2 [F,G,E]2 [F,A,E]2 | [B,F]2 [B,,B,]2 [B,,B,]2 | %25
 [B,,B,]4 [B,,F,][B,,F,] | [B,,B,]2 [B,,B,]2 [B,,B,]2 | [B,,B,]2 [D,B,]2[K:treble] [F,A,F]2 | %28
 [B,F]2 [B,D]2 [B,G]2 |[M:2/4] [B,F]4 |[M:1/4] z2 |[M:3/4] z2 z2 [A,C][CE] | [B,D]4 z2 | %33
 z2 z2[K:bass] [^F,A,][A,C] | %34
[M:13/16] [G,B,]/-[G,B,]/-[G,B,]/-[G,B,]/-[G,B,]-<[G,B,][D,B,]3/2[E,B,] | %35
[M:3/4] [F,B,F]4 [F,B,D][F,B,D] | D2 E2 [F,B,F]2 | [F,A,E]6 |[M:2/4] [B,,B,]4 |] %39
V:3
 x6 | x6 | x6 | x6 | x6 | z2 z2 EE | E4 dc | z2 z2 DE | D4 D[CE] | x6 | x6 | x6 | x6 | z2 z2 FF | %14
 F4 GA | z2 z2 FE |[M:2/4] D4 |[M:1/4] x2 |[M:3/4] x6 | x6 | x6 | x6 | x6 | x6 | x6 | x6 | x6 | %27
 x6 | x6 |[M:2/4] x4 |[M:1/4] x2 |[M:3/4] z2 z2 FF | F4 Bc | z2 z2 DD | %34
[M:13/16] D/-D/-D/-D/-D-<D[Ff]3/2[Ge] |[M:3/4] x6 | x6 | x6 |[M:2/4] x4 |] %39
V:4
 x6 | x6 | x6 | x6 | x6 | x6 | x6 | x6 | x6 | x6 | x6 | x6 | x6 | x6 | x6 | x6 |[M:2/4] x4 | %17
[M:1/4] x2 |[M:3/4] x6 | x6 | x6 | x6 | x6 | x6 | x6 | x6 | x6 | x4[K:treble] x2 | x6 |[M:2/4] x4 | %30
[M:1/4] x2 |[M:3/4] x6 | x6 | x4[K:bass] x2 |[M:13/16] x13/2 |[M:3/4] x6 | [F,B,]4 z2 | x6 | %38
[M:2/4] x4 |] %39

